X:5060
T:Peep of Day. HSJJ.046
O:england
M:6/8
L:1/8
S:HSJ Jackson,Wyresdale,Lancs.1823
R:Jig
A:Lancashire
N:The apparent missing half bar at the end of each phrase seems to work
N:perfectly well as it is, so I have left it alone.CGP.
H:1823
K:G
DGG EGG|DGGA2G|gdd ecc|dAc BAG|DGG EGG|DGG A2G|gdd ecc|"sic"BGG:|
|:Bdd dbb|dcBc2B|Acc caa|cBAB2A|BGG EGG|DGGA2G|gdd ecc|"sic"BGG:|]


